X:83
T:Helen's Birthday Reel
R:reel
C:Bruce Osborne - June. 2001
Z:abc by bosborne@kos.net
M:2/4
L:1/8
K:Gmaj
B/c/|d/B/c/A/ G/A/B/G/|c/B/c/d/ e/g/f/e/|d/B/G/E/ D/G/F/G/|B/A/G/B/ AB/c/|\
d/B/c/A/ G/A/B/G/|c/B/c/d/ e/g/f/e/|d/B/G/E/ D/G/F/G/|A/F/B/A/ G:|\
B/c/|d/g/f/g/ e/c/A/F/|G/F/G/A/ BB/c/|d/g/f/e/ d/B/G/B/|A/G/A/B/ AB/c/|\
d/g/f/g/ e/c/A/F/|G/F/G/A/ BB/c/|d/B/G/B/ c/A/F/A/|G/B/A/F/ G:|
